X:7
T:Wind That Shakes The Barley, The
M:4/4
L:1/8
Z:abc-transcription Josh Larios <hades@elsewhere.org>, 2014.01.13
S:As played at Slower Than Dirt
K:D
"D"A2 AB AF ED | "G"B2 BA B2 d2 | "D"A2 AB AF ED | "G"gf ed "A"Bc dB |
"D"A2 AB AF ED | "G"B2 BA Bc dB | "D"A2 AB AF ED | "G"gf ed "A"Bc de ||
"D"f2 fd "G"g2 ge | "D"f2 fd "A"ed BA | "D"f2 fd "G"g2 ge | "A"af ed "G"Bc de |
"D"f2 fd "G"g2 ge | "D"f2 fd "A"ed BA | "D"de fg "G"af ba | gf ed "A"B2 d2 :|

